X:1

T:The Road to Newbridge

T:The Teetotaler

D:The Sliabh Luachra Fiddle Master - Pádraig O'Keeffe (RTE CD 174)

M:4/4

L:1/8

Z:Transcribed by Paul de Grae

K:G

G3 A BABc|d2 eB dBAc|BE ~E2 BE ~E2|D2 FA DAFA|

[G4B4] GABc|dBeB dBAc|BE ~E2 EDEF|GBAF G3 (3DEF||

G2 GF GABc|dBeB dBAc|BE ~E2 BE ~E2|D2 FA DAFA|

GBAF GABc|dBge dBAc|BE ~E2 EDEF|GBAF G4||

Beef e2 ef|gaaf gfed|Bd ~d2 ed ~d2|faaf gfed|

Beef e4|fgaf gfed|B2 Ac BEED|GBAF G4||

(3B^cd ef e2 e2|fgaf gfed|Bd ~d2 ed ~d2|faaf gfed|

Bdef e4|faaf gf (3efg|a2 af gfef|~g2 ge dB~BA||G8||

           

ROAD TO OREGON. American, Reel. G Major. Standard tuning. The tune is to be found in the music manuscripts of the famous painter William Sydney Mount (1807-1868), from Setauket, Long Island, who was also a fiddler of some skill and local renown.  He obtained tunes from his fiddling acquaintances, including ballroom dances, Scottish country dance tunes, and miscellaneous dance tunes. This one, with the note “From Rickardson”, seems to be of local origin as Rickardson was the name of a Long Island dancing master.

